;FLAVOR:Marlin
;TIME:2359
;Filament used: 5.91594m
;Layer height: 0.32
;MINX:88.012
;MINY:87.393
;MINZ:0.32
;MAXX:161.988
;MAXY:162.6
;MAXZ:29.12
;TARGET_MACHINE.NAME:Creality Ender-3 S1 Pro
;Generated with Cura_SteamEngine 5.9.0
M82 ;absolute extrusion mode
; Ender 3 S1 Pro Start G-code
; M413 S0 ; Disable power loss recovery
G92 E0 ; Reset Extruder

; Prep surfaces before auto home for better accuracy
M140 S60
M104 S200

G28 ; Home all axes
G1 Z10.0 F3000 ; Move Z Axis up little to prevent scratching of Heat Bed
G1 X0 Y0

M190 S60
M109 S200

G1 X0.1 Y20 Z0.3 F5000.0 ; Move to start position
G1 X0.1 Y200.0 Z0.3 F1500.0 E15 ; Draw the first line
G1 X0.4 Y200.0 Z0.3 F5000.0 ; Move to side a little
G1 X0.4 Y20 Z0.3 F1500.0 E30 ; Draw the second line
G92 E0 ; Reset Extruder
G1 Z2.0 F3000 ; Move Z Axis up little to prevent scratching of Heat Bed
G1 X5 Y20 Z0.3 F5000.0 ; Move over to prevent blob squish

G92 E0
G92 E0
G1 F2400 E-0.8
;LAYER_COUNT:91
;LAYER:0
M107
M204 S2000
G0 F7500 X126.842 Y162.376 Z0.32
M204 S500
;TYPE:SKIRT
G1 F2400 E0
G1 F1500 X125.968 Y162.449 E0.09335
G1 X124.888 Y162.488 E0.20837
G1 X123.997 Y162.448 E0.30329
G1 X123.165 Y162.377 E0.39217
G1 X119.664 Y162.033 E0.76658
G1 X118.724 Y161.926 E0.86728
G1 X117.655 Y161.753 E0.98253
G1 X116.836 Y161.551 E1.07231
G1 X115.95 Y161.295 E1.17047
G1 X112.615 Y160.283 E1.5414
G1 X111.81 Y160.028 E1.63128
G1 X110.761 Y159.639 E1.75035
G1 X109.935 Y159.254 E1.84735
G1 X109.315 Y158.932 E1.9217
G1 X105.99 Y157.154 E2.32301
G1 X105.29 Y156.769 E2.40804
G1 X104.398 Y156.221 E2.51946
G1 X103.648 Y155.671 E2.61845
G1 X103.086 Y155.223 E2.69494
G1 X100.036 Y152.721 E3.11481
G1 X99.485 Y152.25 E3.19196
G1 X98.728 Y151.537 E3.30264
G1 X98.14 Y150.892 E3.39554
G1 X97.727 Y150.401 E3.46382
G1 X95.358 Y147.516 E3.86114
G1 X94.803 Y146.818 E3.95605
G1 X94.174 Y145.941 E4.07092
G1 X93.723 Y145.195 E4.1637
G1 X93.307 Y144.444 E4.25507
G1 X91.577 Y141.203 E4.64609
G1 X91.23 Y140.528 E4.72686
G1 X90.782 Y139.545 E4.84184
G1 X90.482 Y138.715 E4.93577
G1 X90.223 Y137.905 E5.02628
G1 X89.198 Y134.526 E5.4021
G1 X88.946 Y133.648 E5.49932
G1 X88.698 Y132.595 E5.61446
G1 X88.565 Y131.714 E5.70929
G1 X88.474 Y130.898 E5.79668
G1 X88.124 Y127.342 E6.17698
G1 X88.053 Y126.509 E6.26596
G1 X88.012 Y125.391 E6.38503
G1 X88.052 Y124.498 E6.48017
G1 X88.123 Y123.662 E6.56947
G1 X88.485 Y119.995 E6.96165
G1 X88.578 Y119.19 E7.0479
G1 X88.747 Y118.163 E7.15868
G1 X88.956 Y117.314 E7.25174
G1 X89.205 Y116.455 E7.34693
G1 X90.262 Y112.975 E7.73402
G1 X90.502 Y112.225 E7.81783
G1 X90.842 Y111.309 E7.92182
G1 X91.245 Y110.44 E8.02377
G1 X91.565 Y109.821 E8.09794
G1 X93.382 Y106.423 E8.50805
G1 X93.772 Y105.724 E8.59325
G1 X94.342 Y104.808 E8.70807
G1 X94.867 Y104.097 E8.80214
G1 X95.286 Y103.574 E8.87346
G1 X97.777 Y100.541 E9.29119
G1 X98.246 Y99.99 E9.3682
G1 X98.959 Y99.232 E9.47896
G1 X99.604 Y98.645 E9.57178
G1 X100.202 Y98.142 E9.65495
G1 X102.984 Y95.858 E10.03805
G1 X103.682 Y95.303 E10.13296
G1 X104.559 Y94.674 E10.24783
G1 X105.305 Y94.223 E10.34061
G1 X106.056 Y93.807 E10.43199
G1 X109.297 Y92.077 E10.823
G1 X109.972 Y91.73 E10.90378
G1 X110.955 Y91.282 E11.01875
G1 X111.783 Y90.982 E11.11249
G1 X112.448 Y90.769 E11.18681
G1 X116.134 Y89.651 E11.59677
G1 X116.888 Y89.436 E11.68021
G1 X117.903 Y89.199 E11.79115
G1 X118.773 Y89.067 E11.8848
G1 X119.603 Y88.974 E11.9737
G1 X123.158 Y88.624 E12.35389
G1 X123.994 Y88.553 E12.44319
G1 X125.111 Y88.512 E12.56216
G1 X126.002 Y88.552 E12.65708
G1 X126.682 Y88.609 E12.72971
G1 X130.336 Y88.967 E13.12048
G1 X131.278 Y89.074 E13.22138
G1 X132.344 Y89.248 E13.33634
G1 X133.209 Y89.461 E13.43115
G1 X134.042 Y89.702 E13.52345
G1 X137.386 Y90.717 E13.89539
G1 X138.19 Y90.972 E13.98516
G1 X139.239 Y91.361 E14.10424
G1 X140.065 Y91.746 E14.20123
G1 X140.685 Y92.068 E14.27559
G1 X144.085 Y93.885 E14.6859
G1 X144.784 Y94.276 E14.77114
G1 X145.698 Y94.846 E14.88579
G1 X146.403 Y95.367 E14.97909
G1 X146.926 Y95.786 E15.05041
G1 X149.959 Y98.277 E15.46814
G1 X150.51 Y98.746 E15.54515
G1 X151.268 Y99.459 E15.65591
G1 X151.855 Y100.104 E15.74873
G1 X152.358 Y100.702 E15.8319
G1 X154.642 Y103.484 E16.215
G1 X155.197 Y104.182 E16.30991
G1 X155.826 Y105.059 E16.42478
G1 X156.277 Y105.805 E16.51756
G1 X156.693 Y106.557 E16.60903
G1 X158.441 Y109.835 E17.00442
G1 X158.815 Y110.567 E17.0919
G1 X159.243 Y111.517 E17.2028
G1 X159.539 Y112.343 E17.29619
G1 X159.777 Y113.095 E17.38014
G1 X160.842 Y116.608 E17.77084
G1 X161.057 Y117.359 E17.85398
G1 X161.297 Y118.375 E17.96509
G1 X161.424 Y119.195 E18.05341
G1 X161.526 Y120.101 E18.15045
G1 X161.876 Y123.657 E18.53075
G1 X161.947 Y124.488 E18.61952
G1 X161.988 Y125.605 E18.73848
G1 X161.948 Y126.495 E18.8333
G1 X161.877 Y127.334 E18.92292
G1 X161.533 Y130.836 E19.29744
G1 X161.426 Y131.777 E19.39824
G1 X161.253 Y132.843 E19.51318
G1 X161.043 Y133.694 E19.60647
G1 X160.833 Y134.421 E19.68701
G1 X159.783 Y137.882 E20.07195
G1 X159.516 Y138.723 E20.16586
G1 X159.139 Y139.739 E20.2812
G1 X158.754 Y140.565 E20.3782
G1 X158.432 Y141.185 E20.45255
G1 X156.644 Y144.53 E20.85624
G1 X156.294 Y145.165 E20.93341
G1 X155.709 Y146.116 E21.05224
G1 X155.19 Y146.824 E21.14568
G1 X154.629 Y147.529 E21.24157
G1 X152.228 Y150.456 E21.6445
G1 X151.76 Y151.004 E21.7212
G1 X151.047 Y151.762 E21.83196
G1 X150.404 Y152.348 E21.92455
G1 X149.798 Y152.858 E22.00885
G1 X147.016 Y155.142 E22.39195
G1 X146.318 Y155.697 E22.48686
G1 X145.441 Y156.326 E22.60173
G1 X144.695 Y156.777 E22.69451
G1 X143.944 Y157.193 E22.78588
G1 X140.703 Y158.923 E23.1769
G1 X140.028 Y159.27 E23.25768
G1 X139.045 Y159.718 E23.37265
G1 X138.215 Y160.018 E23.46658
G1 X137.405 Y160.277 E23.55709
G1 X134.032 Y161.3 E23.93224
G1 X133.18 Y161.546 E24.02662
G1 X132.126 Y161.797 E24.14194
G1 X131.238 Y161.932 E24.23754
G1 X130.398 Y162.026 E24.3275
G1 X126.842 Y162.376 E24.7078
M204 S2000
G0 F7500 X126.775 Y161.579
M204 S500
G1 F1500 X125.901 Y161.652 E24.80115
G1 X124.923 Y161.689 E24.90531
G1 X124.065 Y161.651 E24.99672
G1 X123.243 Y161.581 E25.08453
G1 X119.754 Y161.238 E25.45766
G1 X118.85 Y161.136 E25.55448
G1 X117.847 Y160.976 E25.66259
G1 X117.028 Y160.774 E25.75237
G1 X116.182 Y160.529 E25.84611
G1 X112.857 Y159.52 E26.21593
G1 X112.052 Y159.265 E26.30581
G1 X111.099 Y158.914 E26.4139
G1 X110.303 Y158.543 E26.50737
G1 X109.692 Y158.227 E26.58058
G1 X106.375 Y156.453 E26.98093
G1 X105.707 Y156.086 E27.06205
G1 X104.87 Y155.575 E27.16643
G1 X104.147 Y155.046 E27.26178
G1 X103.593 Y154.604 E27.33721
G1 X100.555 Y152.112 E27.75541
G1 X100.032 Y151.666 E27.82857
G1 X99.319 Y150.998 E27.93256
G1 X98.752 Y150.376 E28.02214
G1 X98.345 Y149.893 E28.08936
G1 X95.984 Y147.018 E28.48531
G1 X95.429 Y146.32 E28.58022
G1 X94.858 Y145.527 E28.68423
G1 X94.423 Y144.808 E28.77367
G1 X94.013 Y144.067 E28.8638
G1 X92.288 Y140.836 E29.25363
G1 X91.957 Y140.194 E29.3305
G1 X91.534 Y139.272 E29.43847
G1 X91.244 Y138.472 E29.52904
G1 X90.989 Y137.673 E29.6183
G1 X89.967 Y134.305 E29.99291
G1 X89.715 Y133.427 E30.09013
G1 X89.489 Y132.475 E30.19427
G1 X89.36 Y131.625 E30.28577
G1 X89.27 Y130.82 E30.37198
G1 X88.921 Y127.274 E30.75121
G1 X88.85 Y126.441 E30.84019
G1 X88.811 Y125.426 E30.9483
G1 X88.849 Y124.566 E31.03992
G1 X88.919 Y123.741 E31.12805
G1 X89.28 Y120.086 E31.51895
G1 X89.368 Y119.318 E31.60122
G1 X89.524 Y118.354 E31.70516
G1 X89.733 Y117.505 E31.79822
G1 X89.971 Y116.687 E31.88889
G1 X91.024 Y113.218 E32.27474
G1 X91.253 Y112.501 E32.35485
G1 X91.568 Y111.645 E32.45193
G1 X91.956 Y110.807 E32.55022
G1 X92.27 Y110.198 E32.62314
G1 X94.081 Y106.813 E33.03174
G1 X94.471 Y106.114 E33.11693
G1 X94.986 Y105.283 E33.22098
G1 X95.492 Y104.597 E33.31171
G1 X95.904 Y104.082 E33.3819
G1 X98.386 Y101.059 E33.7982
G1 X98.83 Y100.537 E33.87114
G1 X99.498 Y99.823 E33.9752
G1 X100.119 Y99.257 E34.06463
G1 X100.71 Y98.76 E34.14682
G1 X103.482 Y96.484 E34.52855
G1 X104.18 Y95.929 E34.62347
G1 X104.973 Y95.358 E34.72747
G1 X105.692 Y94.923 E34.81691
G1 X106.433 Y94.513 E34.90704
G1 X109.664 Y92.788 E35.29687
G1 X110.306 Y92.457 E35.37375
G1 X111.228 Y92.034 E35.48171
G1 X112.027 Y91.744 E35.57218
G1 X112.68 Y91.535 E35.64515
G1 X116.354 Y90.42 E36.0538
G1 X117.072 Y90.215 E36.13327
G1 X118.024 Y89.99 E36.23738
G1 X118.862 Y89.862 E36.32761
G1 X119.681 Y89.77 E36.41532
G1 X123.226 Y89.421 E36.79445
G1 X124.062 Y89.35 E36.88375
G1 X125.076 Y89.311 E36.99175
G1 X125.935 Y89.349 E37.08327
G1 X126.604 Y89.405 E37.15472
G1 X130.246 Y89.762 E37.5442
G1 X131.151 Y89.864 E37.64113
G1 X132.153 Y90.025 E37.74915
G1 X132.987 Y90.23 E37.84055
G1 X133.81 Y90.468 E37.93174
G1 X137.144 Y91.48 E38.30257
G1 X137.948 Y91.735 E38.39234
G1 X138.901 Y92.086 E38.50043
G1 X139.697 Y92.457 E38.5939
G1 X140.308 Y92.773 E38.66712
G1 X143.695 Y94.584 E39.0759
G1 X144.362 Y94.956 E39.15718
G1 X145.223 Y95.49 E39.26502
G1 X145.903 Y95.992 E39.35498
G1 X146.418 Y96.404 E39.42517
G1 X149.441 Y98.886 E39.84147
G1 X149.963 Y99.33 E39.9144
G1 X150.677 Y99.998 E40.01847
G1 X151.243 Y100.619 E40.1079
G1 X151.74 Y101.21 E40.19008
G1 X154.016 Y103.982 E40.57182
G1 X154.571 Y104.68 E40.66673
G1 X155.142 Y105.473 E40.77074
G1 X155.577 Y106.192 E40.86018
G1 X155.987 Y106.933 E40.95031
G1 X157.729 Y110.199 E41.34428
G1 X158.086 Y110.897 E41.42772
G1 X158.49 Y111.788 E41.53184
G1 X158.776 Y112.584 E41.62187
G1 X159.011 Y113.327 E41.70481
G1 X160.073 Y116.829 E42.09429
G1 X160.279 Y117.545 E42.17359
G1 X160.506 Y118.497 E42.27775
G1 X160.633 Y119.317 E42.36607
G1 X160.73 Y120.179 E42.45839
G1 X161.079 Y123.725 E42.83763
G1 X161.15 Y124.556 E42.92639
G1 X161.189 Y125.57 E43.0344
G1 X161.151 Y126.428 E43.12581
G1 X161.081 Y127.256 E43.21425
G1 X160.738 Y130.746 E43.58748
G1 X160.636 Y131.651 E43.68442
G1 X160.476 Y132.652 E43.79231
G1 X160.274 Y133.472 E43.88219
G1 X160.067 Y134.189 E43.96162
G1 X159.02 Y137.641 E44.34555
G1 X158.765 Y138.447 E44.43553
G1 X158.414 Y139.401 E44.54372
G1 X158.043 Y140.197 E44.63719
G1 X157.727 Y140.808 E44.7104
G1 X155.943 Y144.144 E45.11304
G1 X155.593 Y144.779 E45.19021
G1 X155.063 Y145.644 E45.29818
G1 X154.564 Y146.326 E45.38812
G1 X154.01 Y147.022 E45.4828
G1 X151.619 Y149.937 E45.88407
G1 X151.176 Y150.457 E45.95678
G1 X150.508 Y151.171 E46.06084
G1 X149.888 Y151.736 E46.15012
G1 X149.29 Y152.24 E46.23336
G1 X146.518 Y154.516 E46.61509
G1 X145.82 Y155.071 E46.71001
G1 X145.027 Y155.642 E46.81401
G1 X144.308 Y156.077 E46.90345
G1 X143.567 Y156.487 E46.99358
G1 X140.336 Y158.212 E47.38341
G1 X139.694 Y158.543 E47.46029
G1 X138.772 Y158.966 E47.56825
G1 X137.972 Y159.256 E47.65882
G1 X137.173 Y159.511 E47.74808
G1 X133.81 Y160.531 E48.12212
G1 X132.958 Y160.777 E48.2165
G1 X132.005 Y161.006 E48.32082
G1 X131.149 Y161.137 E48.41299
G1 X130.32 Y161.23 E48.50177
G1 X126.775 Y161.579 E48.8809
M204 S2000
G0 F7500 X126.707 Y160.782
M204 S500
G1 F1500 X125.869 Y160.853 E48.97041
G1 X124.958 Y160.89 E49.06745
G1 X124.133 Y160.854 E49.15534
G1 X123.321 Y160.785 E49.24207
G1 X119.844 Y160.443 E49.61393
G1 X118.94 Y160.341 E49.71075
G1 X118.039 Y160.199 E49.80783
G1 X117.22 Y159.997 E49.89761
G1 X116.414 Y159.763 E49.98694
G1 X113.099 Y158.757 E50.35565
G1 X112.294 Y158.502 E50.44552
G1 X111.437 Y158.189 E50.54263
G1 X110.67 Y157.832 E50.63267
G1 X110.069 Y157.522 E50.70465
G1 X106.76 Y155.752 E51.10405
G1 X106.122 Y155.402 E51.1815
G1 X105.342 Y154.929 E51.27859
G1 X104.645 Y154.42 E51.37045
G1 X104.1 Y153.986 E51.4446
G1 X101.074 Y151.503 E51.86121
G1 X100.577 Y151.08 E51.93067
G1 X99.91 Y150.459 E52.02767
G1 X99.364 Y149.861 E52.11385
G1 X98.963 Y149.385 E52.1801
G1 X96.61 Y146.519 E52.57477
G1 X96.077 Y145.85 E52.66581
G1 X95.542 Y145.112 E52.76282
G1 X95.123 Y144.421 E52.84883
G1 X94.719 Y143.69 E52.93772
G1 X92.999 Y140.469 E53.32636
G1 X92.668 Y139.827 E53.40323
G1 X92.286 Y138.999 E53.50029
G1 X92.006 Y138.229 E53.58749
G1 X91.755 Y137.441 E53.67551
G1 X90.736 Y134.084 E54.0489
G1 X90.493 Y133.24 E54.14238
G1 X90.28 Y132.354 E54.23937
G1 X90.155 Y131.536 E54.32744
G1 X90.066 Y130.742 E54.41248
G1 X89.718 Y127.206 E54.79064
G1 X89.647 Y126.373 E54.87962
G1 X89.61 Y125.461 E54.97676
G1 X89.646 Y124.634 E55.06487
G1 X89.715 Y123.82 E55.15181
G1 X90.075 Y120.176 E55.54154
G1 X90.158 Y119.444 E55.61995
G1 X90.301 Y118.544 E55.71694
G1 X90.501 Y117.728 E55.80636
G1 X90.736 Y116.919 E55.89602
G1 X91.786 Y113.461 E56.28066
G1 X92.004 Y112.777 E56.35707
G1 X92.319 Y111.921 E56.45415
G1 X92.667 Y111.173 E56.54195
G1 X92.975 Y110.575 E56.61354
G1 X94.78 Y107.202 E57.02071
G1 X95.152 Y106.534 E57.10209
G1 X95.63 Y105.758 E57.19909
G1 X96.117 Y105.097 E57.28648
G1 X96.529 Y104.582 E57.35667
G1 X98.995 Y101.577 E57.77041
G1 X99.416 Y101.082 E57.83957
G1 X100.037 Y100.414 E57.93664
G1 X100.634 Y99.869 E58.02268
G1 X101.218 Y99.378 E58.10388
G1 X103.981 Y97.11 E58.48434
G1 X104.65 Y96.577 E58.57538
G1 X105.388 Y96.042 E58.67239
G1 X106.079 Y95.623 E58.7584
G1 X106.81 Y95.219 E58.8473
G1 X110.031 Y93.499 E59.23593
G1 X110.673 Y93.168 E59.31281
G1 X111.501 Y92.786 E59.40986
G1 X112.271 Y92.506 E59.49706
G1 X112.912 Y92.301 E59.56869
G1 X116.575 Y91.189 E59.97612
G1 X117.258 Y90.993 E60.05175
G1 X118.145 Y90.781 E60.14881
G1 X118.952 Y90.657 E60.23571
G1 X119.759 Y90.566 E60.32215
G1 X123.294 Y90.218 E60.70021
G1 X124.13 Y90.147 E60.7895
G1 X125.041 Y90.11 E60.88654
G1 X125.868 Y90.146 E60.97465
G1 X126.526 Y90.201 E61.04492
G1 X130.156 Y90.557 E61.43313
G1 X131.061 Y90.659 E61.53006
G1 X131.962 Y90.802 E61.62715
G1 X132.765 Y90.999 E61.71515
G1 X133.578 Y91.234 E61.80522
G1 X136.902 Y92.243 E62.17495
G1 X137.706 Y92.498 E62.26472
G1 X138.563 Y92.811 E62.36182
G1 X139.33 Y93.168 E62.45187
G1 X139.931 Y93.478 E62.52384
G1 X143.305 Y95.283 E62.9311
G1 X143.972 Y95.655 E63.01239
G1 X144.748 Y96.134 E63.10945
G1 X145.403 Y96.617 E63.19606
G1 X145.918 Y97.029 E63.26626
G1 X148.923 Y99.495 E63.67999
G1 X149.418 Y99.916 E63.74916
G1 X150.086 Y100.537 E63.84623
G1 X150.631 Y101.134 E63.93226
G1 X151.122 Y101.718 E64.01347
G1 X153.39 Y104.481 E64.39393
G1 X153.923 Y105.15 E64.48497
G1 X154.458 Y105.888 E64.58198
G1 X154.877 Y106.579 E64.66799
G1 X155.281 Y107.31 E64.75688
G1 X157.017 Y110.563 E65.14933
G1 X157.358 Y111.23 E65.22905
G1 X157.737 Y112.059 E65.32607
G1 X158.013 Y112.825 E65.41273
G1 X158.245 Y113.559 E65.49466
G1 X159.304 Y117.051 E65.88304
G1 X159.501 Y117.733 E65.95859
G1 X159.715 Y118.619 E66.0556
G1 X159.842 Y119.439 E66.14392
G1 X159.934 Y120.257 E66.23153
G1 X160.282 Y123.793 E66.60969
G1 X160.353 Y124.624 E66.69846
G1 X160.39 Y125.535 E66.7955
G1 X160.354 Y126.361 E66.8835
G1 X160.285 Y127.178 E66.97076
G1 X159.943 Y130.656 E67.34272
G1 X159.841 Y131.561 E67.43965
G1 X159.699 Y132.461 E67.53662
G1 X159.497 Y133.281 E67.62651
G1 X159.301 Y133.957 E67.70142
G1 X158.257 Y137.4 E68.08434
G1 X158.002 Y138.206 E68.17432
G1 X157.689 Y139.063 E68.27142
G1 X157.332 Y139.83 E68.36147
G1 X157.022 Y140.431 E68.43344
G1 X155.242 Y143.758 E68.83503
G1 X154.892 Y144.393 E68.91221
G1 X154.417 Y145.172 E69.00931
G1 X153.938 Y145.828 E69.09577
G1 X153.392 Y146.515 E69.18916
G1 X151.009 Y149.419 E69.58899
G1 X150.59 Y149.912 E69.65785
G1 X149.969 Y150.58 E69.75492
G1 X149.373 Y151.124 E69.84081
G1 X148.782 Y151.622 E69.92306
G1 X146.019 Y153.89 E70.30352
G1 X145.35 Y154.423 E70.39456
G1 X144.612 Y154.958 E70.49157
G1 X143.921 Y155.377 E70.57758
G1 X143.19 Y155.781 E70.66648
G1 X139.969 Y157.501 E71.05511
G1 X139.327 Y157.832 E71.13199
G1 X138.499 Y158.214 E71.22904
G1 X137.729 Y158.494 E71.31624
G1 X136.941 Y158.745 E71.40426
G1 X133.587 Y159.763 E71.77732
G1 X132.769 Y160 E71.86796
G1 X131.883 Y160.215 E71.965
G1 X131.059 Y160.342 E72.05373
G1 X130.242 Y160.434 E72.14124
G1 X126.707 Y160.782 E72.51929
M204 S2000
G1 F2400 E71.71929
;MESH:Baticuello.stl
G0 F7500 X125.754 Y151.093
G0 X125 Y149.247
M204 S500
;TYPE:WALL-INNER
G1 F2400 E72.51929
G1 F1339.3 X129.623 Y148.79 E73.07306
G1 X134.092 Y147.434 E73.62977
G1 F1342.3 X138.188 Y145.247 E74.18203
G1 F1343.8 X141.79 Y142.29 E74.7357
G1 X144.747 Y138.688 E75.28937
G1 X146.934 Y134.592 E75.84101
G1 F1340.8 X148.29 Y130.123 E76.3971
G1 F1342.3 X148.747 Y125.5 E76.94963
