;FLAVOR:Marlin
;TIME:2587
;Filament used: 6.35692m
;Layer height: 0.32
;MINX:95.783
;MINY:98.758
;MINZ:0.32
;MAXX:153.844
;MAXY:157.453
;MAXZ:64
;TARGET_MACHINE.NAME:Creality Ender-3 S1 Pro
;Generated with Cura_SteamEngine 5.9.0
M82 ;absolute extrusion mode
; Ender 3 S1 Pro Start G-code
; M413 S0 ; Disable power loss recovery
G92 E0 ; Reset Extruder

; Prep surfaces before auto home for better accuracy
M140 S60
M104 S200

G28 ; Home all axes
G1 Z10.0 F3000 ; Move Z Axis up little to prevent scratching of Heat Bed
G1 X0 Y0

M190 S60
M109 S200

G1 X0.1 Y20 Z0.3 F5000.0 ; Move to start position
G1 X0.1 Y200.0 Z0.3 F1500.0 E15 ; Draw the first line
G1 X0.4 Y200.0 Z0.3 F5000.0 ; Move to side a little
G1 X0.4 Y20 Z0.3 F1500.0 E30 ; Draw the second line
G92 E0 ; Reset Extruder
G1 Z2.0 F3000 ; Move Z Axis up little to prevent scratching of Heat Bed
G1 X5 Y20 Z0.3 F5000.0 ; Move over to prevent blob squish

G92 E0
G92 E0
G1 F2400 E-0.8
;LAYER_COUNT:200
;LAYER:0
M107
M204 S2000
G0 F7500 X127.963 Y157.321 Z0.32
M204 S500
;TYPE:SKIRT
G1 F2400 E0
G1 F1500 X127.113 Y157.383 E0.09071
G1 X126.358 Y157.408 E0.17111
G1 X123.413 Y157.453 E0.48459
G1 X122.304 Y157.405 E0.60273
G1 X121.489 Y157.307 E0.6901
G1 X120.653 Y157.173 E0.78021
G1 X118.495 Y156.789 E1.0135
G1 X117.805 Y156.657 E1.08827
G1 X116.721 Y156.395 E1.20697
G1 X115.885 Y156.121 E1.3006
G1 X115.122 Y155.837 E1.38725
G1 X112.676 Y154.886 E1.66657
G1 X111.984 Y154.604 E1.7461
G1 X110.996 Y154.145 E1.86205
G1 X110.086 Y153.62 E1.97387
G1 X109.251 Y153.037 E2.08226
G1 X108.796 Y152.674 E2.14421
G1 X107.583 Y151.65 E2.31316
G1 X107.307 Y151.396 E2.35308
G1 X106.568 Y150.759 E2.45692
G1 X105.361 Y149.658 E2.63081
G1 X103.994 Y148.358 E2.83158
G1 X103.451 Y147.827 E2.91242
G1 X102.718 Y147.038 E3.02704
G1 X102.192 Y146.375 E3.11712
G1 X101.733 Y145.749 E3.19973
G1 X100.504 Y144.019 E3.42559
G1 X100.003 Y143.292 E3.51956
G1 X99.451 Y142.406 E3.63067
G1 X99.062 Y141.652 E3.72097
G1 X98.763 Y141.012 E3.79615
G1 X97.812 Y138.903 E4.04238
G1 X97.512 Y138.212 E4.12256
G1 X97.138 Y137.228 E4.2346
G1 X96.844 Y136.199 E4.3485
G1 X96.238 Y133.646 E4.62777
G1 X96.023 Y132.626 E4.73872
G1 X95.854 Y131.548 E4.85486
G1 X95.783 Y130.499 E4.96676
G1 X95.799 Y129.491 E5.07406
G1 X96.013 Y125.956 E5.45098
G1 X96.139 Y124.811 E5.57358
G1 X96.588 Y121.966 E5.88013
G1 X96.716 Y121.241 E5.95849
G1 X96.946 Y120.222 E6.06967
G1 X97.22 Y119.344 E6.16756
G1 X97.47 Y118.642 E6.24688
G1 X98.216 Y116.64 E6.47427
G1 X98.532 Y115.825 E6.5673
G1 X98.987 Y114.803 E6.68637
G1 X99.427 Y113.997 E6.7841
G1 X99.805 Y113.367 E6.8623
G1 X101.043 Y111.372 E7.11219
G1 X101.453 Y110.736 E7.19273
G1 X102.061 Y109.886 E7.30396
G1 X102.642 Y109.197 E7.39988
G1 X103.154 Y108.635 E7.4808
G1 X104.73 Y106.958 E7.72573
G1 X105.264 Y106.408 E7.80732
G1 X106.029 Y105.693 E7.91877
G1 X106.764 Y105.109 E8.01869
G1 X107.601 Y104.5 E8.12885
G1 X109.331 Y103.28 E8.35416
G1 X110.106 Y102.751 E8.45403
G1 X110.943 Y102.234 E8.55874
G1 X111.958 Y101.726 E8.67954
G1 X112.997 Y101.322 E8.79819
G1 X113.948 Y101.008 E8.90478
G1 X117.077 Y99.919 E9.2574
G1 X118.201 Y99.506 E9.38485
G1 X119.136 Y99.207 E9.48933
G1 X120.301 Y98.945 E9.61642
G1 X121.333 Y98.812 E9.72717
G1 X122.192 Y98.769 E9.81871
G1 X123.045 Y98.759 E9.9095
G1 X125.831 Y98.758 E10.20602
G1 X126.685 Y98.77 E10.29693
G1 X127.732 Y98.837 E10.40859
G1 X128.669 Y98.975 E10.50939
G1 X129.777 Y99.187 E10.62946
G1 X131.597 Y99.566 E10.82732
G1 X132.434 Y99.754 E10.91862
G1 X133.412 Y100.022 E11.02655
G1 X134.351 Y100.363 E11.13288
G1 X135.334 Y100.772 E11.2462
G1 X137.198 Y101.58 E11.46242
G1 X137.783 Y101.843 E11.53069
G1 X138.782 Y102.352 E11.65002
G1 X139.595 Y102.855 E11.75177
G1 X140.288 Y103.325 E11.84089
G1 X141.967 Y104.502 E12.05913
G1 X142.727 Y105.053 E12.15904
G1 X143.543 Y105.706 E12.27027
G1 X144.214 Y106.339 E12.36845
G1 X144.78 Y106.918 E12.45463
G1 X146.177 Y108.39 E12.67062
G1 X146.817 Y109.084 E12.7711
G1 X147.134 Y109.445 E12.82223
G1 X149.041 Y111.689 E13.13566
G1 X149.647 Y112.462 E13.2402
G1 X150.225 Y113.342 E13.35226
G1 X150.745 Y114.314 E13.46959
G1 X151.033 Y114.967 E13.54554
G1 X151.293 Y115.614 E13.61976
G1 X152.28 Y118.196 E13.91396
G1 X152.571 Y118.993 E14.00427
G1 X152.881 Y119.995 E14.1159
G1 X153.091 Y120.944 E14.21935
G1 X153.587 Y123.787 E14.5265
G1 X153.706 Y124.545 E14.60817
G1 X153.819 Y125.579 E14.71887
G1 X153.844 Y126.397 E14.80598
G1 X153.84 Y127.208 E14.89229
G1 X153.791 Y129.473 E15.13342
G1 X153.764 Y130.223 E15.2133
G1 X153.692 Y131.132 E15.31035
G1 X153.556 Y132.003 E15.40417
G1 X153.409 Y132.756 E15.48583
G1 X152.943 Y134.923 E15.72174
G1 X152.673 Y136.086 E15.84881
G1 X152.481 Y136.822 E15.92977
G1 X152.324 Y137.504 E16.00425
G1 X151.934 Y138.963 E16.16499
G1 X151.601 Y140 E16.28091
G1 X151.196 Y140.966 E16.3924
G1 X150.775 Y141.775 E16.48946
G1 X150.423 Y142.355 E16.56167
G1 X149.826 Y143.276 E16.67849
G1 X148.455 Y145.32 E16.94044
G1 X148.009 Y145.962 E17.02364
G1 X147.38 Y146.784 E17.1338
G1 X146.857 Y147.369 E17.21732
G1 X146.468 Y147.775 E17.27717
G1 X144.825 Y149.434 E17.52567
G1 X144.19 Y150.056 E17.62028
G1 X143.459 Y150.712 E17.72482
G1 X142.733 Y151.269 E17.82221
G1 X142.108 Y151.709 E17.90356
G1 X140.245 Y152.979 E18.14353
G1 X139.641 Y153.378 E18.22058
G1 X138.686 Y153.944 E18.33873
G1 X137.936 Y154.314 E18.42774
G1 X137.43 Y154.541 E18.48677
G1 X135.201 Y155.5 E18.74503
G1 X134.479 Y155.798 E18.82816
G1 X133.561 Y156.128 E18.93199
G1 X132.692 Y156.368 E19.02794
G1 X132.059 Y156.516 E19.09713
G1 X129.795 Y157.004 E19.34363
G1 X128.993 Y157.165 E19.43069
G1 X127.963 Y157.321 E19.54156
M204 S2000
G0 F7500 X127.905 Y156.523
M204 S500
G1 F1500 X127.086 Y156.583 E19.62897
G1 X126.343 Y156.608 E19.70809
G1 X124.11 Y156.649 E19.94579
G1 X123.408 Y156.653 E20.02051
G1 X122.399 Y156.611 E20.12799
G1 X121.616 Y156.517 E20.21193
G1 X120.793 Y156.385 E20.30064
G1 X118.645 Y156.003 E20.53285
G1 X117.955 Y155.871 E20.60762
G1 X116.97 Y155.635 E20.71542
G1 X116.164 Y155.371 E20.80569
G1 X115.412 Y155.091 E20.89109
G1 X112.978 Y154.145 E21.16903
G1 X112.286 Y153.863 E21.24856
G1 X111.394 Y153.451 E21.35314
G1 X110.543 Y152.963 E21.45755
G1 X109.749 Y152.411 E21.56047
G1 X109.312 Y152.063 E21.61993
G1 X108.125 Y151.061 E21.78525
G1 X107.849 Y150.807 E21.82518
G1 X107.107 Y150.168 E21.9294
G1 X105.912 Y149.078 E22.10155
G1 X104.553 Y147.786 E22.30112
G1 X104.01 Y147.255 E22.38196
G1 X103.344 Y146.54 E22.48595
G1 X102.837 Y145.902 E22.57269
G1 X102.385 Y145.286 E22.65401
G1 X101.162 Y143.565 E22.87872
G1 X100.681 Y142.868 E22.96885
G1 X100.162 Y142.038 E23.07304
G1 X99.787 Y141.313 E23.15991
G1 X99.492 Y140.683 E23.23395
G1 X98.546 Y138.584 E23.47899
G1 X98.246 Y137.893 E23.55917
G1 X97.907 Y137.008 E23.66004
G1 X97.622 Y136.014 E23.77009
G1 X97.021 Y133.481 E24.04717
G1 X96.806 Y132.461 E24.15812
G1 X96.652 Y131.492 E24.26255
G1 X96.583 Y130.511 E24.36721
G1 X96.598 Y129.539 E24.47068
G1 X96.812 Y126.004 E24.84761
G1 X96.929 Y124.936 E24.96196
G1 X97.376 Y122.104 E25.2671
G1 X97.497 Y121.415 E25.34156
G1 X97.71 Y120.459 E25.4458
G1 X97.973 Y119.613 E25.54009
G1 X98.22 Y118.921 E25.6183
G1 X98.962 Y116.929 E25.84454
G1 X99.278 Y116.114 E25.93758
G1 X99.689 Y115.186 E26.0456
G1 X100.113 Y114.409 E26.13981
G1 X100.485 Y113.789 E26.21676
G1 X101.716 Y111.805 E26.46527
G1 X102.105 Y111.2 E26.54182
G1 X102.673 Y110.401 E26.64616
G1 X103.233 Y109.736 E26.73869
G1 X103.737 Y109.183 E26.81832
G1 X105.304 Y107.515 E27.06191
G1 X105.812 Y106.991 E27.13958
G1 X106.527 Y106.319 E27.24402
G1 X107.235 Y105.756 E27.34029
G1 X108.062 Y105.154 E27.44916
G1 X109.783 Y103.94 E27.67332
G1 X110.526 Y103.432 E27.76911
G1 X111.363 Y102.915 E27.87382
G1 X112.248 Y102.472 E27.97916
G1 X113.287 Y102.068 E28.09781
G1 X114.211 Y101.764 E28.20134
G1 X117.34 Y100.675 E28.55396
G1 X118.477 Y100.257 E28.68289
G1 X119.379 Y99.969 E28.78367
G1 X120.405 Y99.738 E28.8956
G1 X121.374 Y99.611 E28.99961
G1 X122.201 Y99.569 E29.08775
G1 X123.045 Y99.559 E29.17758
G1 X125.82 Y99.558 E29.47293
G1 X126.636 Y99.569 E29.55979
G1 X127.616 Y99.629 E29.66429
G1 X128.519 Y99.761 E29.76142
G1 X129.614 Y99.97 E29.88006
G1 X131.422 Y100.347 E30.07663
G1 X132.259 Y100.535 E30.16794
G1 X133.139 Y100.774 E30.26499
G1 X134.044 Y101.102 E30.36744
G1 X135.016 Y101.506 E30.47948
G1 X136.87 Y102.31 E30.69456
G1 X137.455 Y102.573 E30.76282
G1 X138.362 Y103.033 E30.87106
G1 X139.146 Y103.517 E30.96912
G1 X139.829 Y103.98 E31.05695
G1 X141.498 Y105.15 E31.27388
G1 X142.229 Y105.679 E31.36992
G1 X142.995 Y106.289 E31.47414
G1 X143.642 Y106.898 E31.56871
G1 X144.2 Y107.469 E31.65368
G1 X145.589 Y108.933 E31.86847
G1 X146.216 Y109.612 E31.96684
G1 X146.523 Y109.961 E32.01631
G1 X147.876 Y111.563 E32.23949
G1 X148.413 Y112.185 E32.32695
G1 X148.978 Y112.901 E32.42402
G1 X149.556 Y113.781 E32.53608
G1 X150.013 Y114.638 E32.63945
G1 X150.291 Y115.266 E32.71254
G1 X150.546 Y115.9 E32.78528
G1 X151.529 Y118.471 E33.07823
G1 X151.807 Y119.232 E33.16446
G1 X152.1 Y120.169 E33.26895
G1 X152.303 Y121.082 E33.3685
G1 X152.797 Y123.912 E33.67426
G1 X152.911 Y124.634 E33.75205
G1 X153.019 Y125.604 E33.85593
G1 X153.044 Y126.393 E33.93995
G1 X153.04 Y127.191 E34.02488
G1 X152.992 Y129.444 E34.26473
G1 X152.966 Y130.16 E34.34098
G1 X152.894 Y131.069 E34.43803
G1 X152.771 Y131.85 E34.52218
G1 X152.627 Y132.588 E34.60221
G1 X152.164 Y134.742 E34.8367
G1 X151.899 Y135.884 E34.96148
G1 X151.701 Y136.643 E35.04496
G1 X151.551 Y137.297 E35.11638
G1 X151.161 Y138.756 E35.27711
G1 X150.863 Y139.692 E35.38166
G1 X150.486 Y140.597 E35.48601
G1 X150.065 Y141.406 E35.58307
G1 X149.752 Y141.92 E35.64712
G1 X149.162 Y142.83 E35.76255
G1 X147.798 Y144.864 E36.02321
G1 X147.373 Y145.477 E36.1026
G1 X146.783 Y146.251 E36.20618
G1 X146.279 Y146.816 E36.28676
G1 X145.9 Y147.212 E36.3451
G1 X144.265 Y148.862 E36.59233
G1 X143.63 Y149.484 E36.68694
G1 X142.925 Y150.116 E36.78771
G1 X142.273 Y150.615 E36.87509
G1 X141.657 Y151.048 E36.95523
G1 X139.804 Y152.311 E37.19391
G1 X139.2 Y152.71 E37.27095
G1 X138.332 Y153.227 E37.37848
G1 X137.609 Y153.584 E37.4643
G1 X137.114 Y153.806 E37.52204
G1 X134.896 Y154.761 E37.77906
G1 X134.208 Y155.045 E37.85828
G1 X133.29 Y155.375 E37.9621
G1 X132.51 Y155.589 E38.04819
G1 X131.89 Y155.734 E38.11596
G1 X129.638 Y156.22 E38.36116
G1 X128.871 Y156.374 E38.44443
G1 X127.905 Y156.523 E38.54845
M204 S2000
G0 F7500 X127.846 Y155.725
M204 S500
G1 F1500 X127.059 Y155.783 E38.63244
G1 X126.328 Y155.808 E38.71029
G1 X124.101 Y155.85 E38.94736
G1 X123.405 Y155.853 E39.02144
G1 X122.494 Y155.817 E39.11847
G1 X121.743 Y155.727 E39.19898
G1 X120.933 Y155.597 E39.28629
G1 X118.795 Y155.217 E39.51741
G1 X118.105 Y155.085 E39.59218
G1 X117.218 Y154.874 E39.68922
G1 X116.443 Y154.621 E39.77599
G1 X115.702 Y154.345 E39.86015
G1 X113.279 Y153.404 E40.1368
G1 X112.619 Y153.136 E40.21261
G1 X111.79 Y152.756 E40.30967
G1 X110.998 Y152.305 E40.40668
G1 X110.248 Y151.786 E40.50375
G1 X109.828 Y151.451 E40.56093
G1 X108.667 Y150.472 E40.72257
G1 X108.391 Y150.218 E40.76249
G1 X107.646 Y149.577 E40.86709
G1 X106.463 Y148.498 E41.03751
G1 X105.112 Y147.214 E41.23588
G1 X104.594 Y146.708 E41.31295
G1 X103.97 Y146.042 E41.41008
G1 X103.482 Y145.428 E41.49356
G1 X103.037 Y144.822 E41.57358
G1 X101.82 Y143.11 E41.79714
G1 X101.358 Y142.442 E41.88358
G1 X100.873 Y141.67 E41.98062
G1 X100.498 Y140.945 E42.06749
G1 X100.221 Y140.354 E42.13696
G1 X99.28 Y138.265 E42.38081
G1 X98.98 Y137.574 E42.46099
G1 X98.654 Y136.722 E42.55808
G1 X98.4 Y135.83 E42.65679
G1 X97.804 Y133.315 E42.93189
G1 X97.596 Y132.333 E43.03872
G1 X97.45 Y131.433 E43.13576
G1 X97.383 Y130.523 E43.23288
G1 X97.397 Y129.587 E43.33251
G1 X97.611 Y126.052 E43.70944
G1 X97.719 Y125.061 E43.81554
G1 X98.164 Y122.241 E44.11939
G1 X98.278 Y121.587 E44.19005
G1 X98.474 Y120.696 E44.28714
G1 X98.727 Y119.882 E44.37787
G1 X98.97 Y119.2 E44.45493
G1 X99.708 Y117.218 E44.68002
G1 X100.024 Y116.403 E44.77306
G1 X100.391 Y115.569 E44.87004
G1 X100.799 Y114.821 E44.96072
G1 X101.165 Y114.211 E45.03644
G1 X102.389 Y112.237 E45.28364
G1 X102.759 Y111.661 E45.35651
G1 X103.285 Y110.916 E45.45357
G1 X103.824 Y110.275 E45.54271
G1 X104.32 Y109.731 E45.62106
G1 X105.879 Y108.071 E45.86344
G1 X106.362 Y107.572 E45.93735
G1 X107.025 Y106.945 E46.03448
G1 X107.706 Y106.403 E46.12711
G1 X108.523 Y105.808 E46.23468
G1 X110.235 Y104.6 E46.45769
G1 X110.949 Y104.111 E46.54979
G1 X111.724 Y103.629 E46.64693
G1 X112.538 Y103.218 E46.74398
G1 X113.577 Y102.814 E46.86263
G1 X114.474 Y102.52 E46.9631
G1 X117.603 Y101.431 E47.31572
G1 X118.753 Y101.008 E47.44613
G1 X119.622 Y100.731 E47.54321
G1 X120.511 Y100.531 E47.64019
G1 X121.415 Y100.41 E47.73727
G1 X122.211 Y100.369 E47.8221
G1 X123.045 Y100.359 E47.91087
G1 X125.81 Y100.358 E48.20515
G1 X126.59 Y100.368 E48.28818
G1 X127.501 Y100.421 E48.3853
G1 X128.369 Y100.547 E48.47865
G1 X129.451 Y100.753 E48.59588
G1 X131.248 Y101.128 E48.79126
G1 X132.049 Y101.307 E48.87862
G1 X132.929 Y101.546 E48.97567
G1 X133.737 Y101.841 E49.06722
G1 X134.698 Y102.24 E49.17797
G1 X136.542 Y103.04 E49.3919
G1 X137.127 Y103.303 E49.46017
G1 X137.942 Y103.714 E49.55732
G1 X138.697 Y104.179 E49.65169
G1 X139.37 Y104.635 E49.73821
G1 X141.029 Y105.798 E49.95385
G1 X141.732 Y106.306 E50.04616
G1 X142.447 Y106.872 E50.14322
G1 X143.07 Y107.458 E50.23425
G1 X143.62 Y108.02 E50.31794
G1 X145.001 Y109.476 E50.53153
G1 X145.616 Y110.142 E50.62801
G1 X145.912 Y110.477 E50.67559
G1 X147.271 Y112.086 E50.89975
G1 X147.785 Y112.681 E50.98344
G1 X148.35 Y113.397 E51.08051
G1 X148.851 Y114.159 E51.17757
G1 X149.282 Y114.963 E51.27466
G1 X149.549 Y115.564 E51.34466
G1 X149.799 Y116.186 E51.416
G1 X150.778 Y118.746 E51.70772
G1 X151.044 Y119.473 E51.79011
G1 X151.319 Y120.343 E51.88722
G1 X151.522 Y121.256 E51.98677
G1 X152.007 Y124.037 E52.28722
G1 X152.116 Y124.724 E52.36126
G1 X152.219 Y125.63 E52.45831
G1 X152.244 Y126.389 E52.53913
G1 X152.24 Y127.174 E52.62268
G1 X152.192 Y129.416 E52.86136
G1 X152.168 Y130.097 E52.93388
G1 X152.096 Y131.006 E53.03093
G1 X151.986 Y131.697 E53.1054
G1 X151.845 Y132.42 E53.18381
G1 X151.385 Y134.561 E53.41688
G1 X151.125 Y135.682 E53.53935
G1 X150.921 Y136.465 E53.62547
G1 X150.778 Y137.091 E53.69382
G1 X150.398 Y138.516 E53.85078
G1 X150.124 Y139.386 E53.94786
G1 X149.776 Y140.228 E54.04483
G1 X149.355 Y141.037 E54.1419
G1 X149.081 Y141.485 E54.19779
G1 X148.498 Y142.384 E54.31183
G1 X147.14 Y144.409 E54.57133
G1 X146.736 Y144.993 E54.64691
G1 X146.185 Y145.719 E54.74392
G1 X145.701 Y146.263 E54.82142
G1 X145.332 Y146.649 E54.87825
G1 X143.705 Y148.29 E55.1242
G1 X143.07 Y148.912 E55.2188
G1 X142.391 Y149.52 E55.31581
G1 X141.812 Y149.961 E55.39327
G1 X141.207 Y150.387 E55.47203
G1 X139.363 Y151.643 E55.70949
G1 X138.759 Y152.042 E55.78654
G1 X137.977 Y152.51 E55.88353
G1 X137.282 Y152.854 E55.96607
G1 X136.798 Y153.071 E56.02252
G1 X134.59 Y154.022 E56.27839
G1 X133.935 Y154.293 E56.35384
G1 X133.078 Y154.604 E56.45087
G1 X132.328 Y154.81 E56.53365
G1 X131.721 Y154.952 E56.6
G1 X129.48 Y155.436 E56.84402
G1 X128.747 Y155.584 E56.92361
G1 X127.846 Y155.725 E57.02067
M204 S2000
G1 F2400 E56.22067
G0 F7500 X125.975 Y138.118
G0 X125.978 Y137.846
M204 S500
G1 F2400 E57.02067
G1 F1500 X127.711 Y137.46 E57.20964
G1 X127.781 Y137.438 E57.21745
G1 X129.418 Y136.742 E57.40677
G1 X129.482 Y136.707 E57.41453
G1 X130.97 Y135.719 E57.60464
G1 X131.027 Y135.674 E57.61236
G1 X132.323 Y134.422 E57.80415
G1 X132.371 Y134.366 E57.812
G1 X133.427 Y132.884 E58.00568
G1 X133.463 Y132.821 E58.01341
G1 X134.243 Y131.15 E58.20968
G1 X134.268 Y131.081 E58.21749
G1 X134.734 Y129.27 E58.41652
G1 X134.746 Y129.197 E58.42439
G1 X134.873 Y127.303 E58.62642
G1 X134.871 Y127.227 E58.63452
G1 X134.635 Y125.316 E58.83945
G1 X134.618 Y125.241 E58.84764
G1 X134.013 Y123.383 E59.05561
G1 X133.982 Y123.312 E59.06386
G1 X133.015 Y121.584 E59.27461
G1 X132.969 Y121.518 E59.28317
G1 X131.661 Y119.999 E59.49652
G1 X131.602 Y119.943 E59.50518
G1 X129.996 Y118.708 E59.72081
G1 X129.925 Y118.664 E59.7297
G1 X128.078 Y117.781 E59.94759
G1 X127.997 Y117.753 E59.95671
